!!!COM: Schubert, Franz
!!!CNT: Deutscher
!!!TXO: Deutsch
!!!LYR: August Wilhelm von Schlegel
!!!OTL: "Abendlied fu2r die Entfernte"
!!!OPS: Op. 88
!!!ONM: No. 1
!!!ODT: 1825/
!!NB: Vocal melody only encoded.
!!NB: Original key: F Major
**kern	**silbe
*staff1	*
*clefG2	*
*k[b-e-a-]	*
*M6/8	*
*MM[In massiger Bewegung]	*
=6	=6
4r	.
8r	.
4r	.
{8b-	{Hin-
=7	=7
4b-	-aus,
8g	mein
4e-	Blick,
8cc	hin-
=8	=8
4b-	-aus
8g	in's
4e-}	Tal,}
{8b-	{da
=9	=9
4ee-	wohnt
8g	noch
8cc	Le-
8b-	|
8g	-bens-
=10	=10
4f	-fu2l-
16a-	|
16g	|
4f}	-le,}
8r	.
=11	=11
2.r	.
=12	=12
4r	.
8r	.
4r	.
{8f	{da
=13	=13
4f	la-
16g	-be
16an	|
4b-	dich
8dd-	im
=14	=14
4cc	Mon-
8a-	-den-
4cc}	-strahl}
{8a-	{und
=15	=15
[4.a-	an
4a-]	|
8a-	der
=16	=16
[4.b-	heil'-
8b-]	|
8cc-	|
8f	-gen
=17	=17
a-q	Stil-
4g-	|
8g-}	-le.}
4r	.
8r	.
=18	=18
2.r	.
=19	=19
4r	.
8r	.
4r	.
{8b-	{Da
=20	=20
4b-	horch
8b-	nun
8dd-	un-
8cc	|
8b-	-ge-
=21	=21
4an	-sto2rt,
8cc	mein
4cc}	Herz,}
{16f	{da
16g	|
=22	=22
4a-	horch
8cc	den
8b-	lei-
8ee-	|
16cc	-sen
16a-	|
=23	=23
4.g	Kla2n-
4f}	-gen;}
8r	.
=24	=24
2.r	.
=25	=25
4r	.
8r	.
4r	.
{8b-	{die
=26	=26
4cc	wie
8f	von
8.g	fern,
16b-	|
16ee-	zu
16dd	|
=27	=27
4cc	Wonn'
8f	und
4g}	Schmerz,}
8r	.
=28	=28
4r	.
{8b-	{sich
4bn	dir
8bn	ent-
=29	=29
4cc	-ge-
16b-	-gen
16a-	|
4g	dra2n-
16b-	|
16a-	|
=30	=30
4g}	-gen,}
8r	.
4r	.
{8b-	{sich
=31	=31
4.b-	dir
4bn	|
8b	ent-
=32	=32
[4.cc	-ge-
8cc]	|
8ff	|
8ee-	-gen
=33	=33
8ee-	dra2n-
8dd	|
8cc	|
4.dd	|
=34	=34
4.ee-}	-gen.}
4r	.
8r	.
=35	=35
2.r	.
=36	=36
2.r	.
=37	=37
2.r	.
=38	=38
2.r	.
=39	=39
2.r	.
=40	=40
4r	.
8r	.
4r	.
{8b-	{Wenn
=41	=41
*k[b-e-a-d-g-c-]	*
4b-	Ah-
8g-	-nung
4e-	und
8cc-	Er-
=42	=42
4b-	-in-
8g-	-ne
4e-}	rund}
{8b-	{vor
=43	=43
4ee-	un-
8g-	-serm
8cc-	Blick
8b-	|
8g-	sich
=44	=44
4f	gat-
16a-	|
16g-	|
4f}	-ten,}
8r	.
=45	=45
2.r	.
=46	=46
4r	.
8r	.
4r	.
{8f	{dann
=47	=47
4f	mil-
16gn	-dert
16an	|
4b-	sich
8dd-	zur
=48	=48
4cc-	Da2m-
16cc-	-me-
16b-	|
4a-}	-rung}
{8a-	{der
=49	=49
[4.a-	See-
4a-]	|
8a-	-le
=50	=50
8cc-	tief-
8b--	|
8a-	-ster
[4a-	Schat-
16a-]	|
16g-	|
=51	=51
4f-}	-ten.}
8r	.
4r	.
8r	.
=52	=52
2.r	.
=53	=53
4r	.
8r	.
4r	.
{8a-	{Ach
=54	=54
4a-	du2rf-
8a-	-ten
8cc-	wir
8b-	|
8a-	mit
=55	=55
4gn	Tra2u-
8b-	-men
4b-}	nicht}
{16e-	{die
16f	|
=56	=56
4g-	Wirk-
8b--	-lich-
8b--	-keit
8a-	|
8g-	ver-
=57	=57
4f	-we-
8a-}	-ben,}
4r	.
{8a-	{wie
=58	=58
4cc-	arm
8f	an
8.g-	Far-
16b-	|
16ee-	-be,
16dd-	|
=59	=59
4cc-	Glanz
8f	und
4g-}	Licht}
8r	.
=60	=60
4r	.
{8b-	{wa2rst
4b-	du,
8b-	o
=61	=61
4cc-	Men-
16b-	-schen-
16a-	-le-
4g-	|
16a-	|
16cc-	|
=62	=62
4b-}	-ben,}
8r	.
4r	.
{8b-	{wie
=63	=63
[4.b-	arm
4b-]	|
8b-	wa2rst
=64	=64
4cc-	du,
8cc-	wie
4ff-	arm,
8cc-	du
=65	=65
8b-	Men-
8a-	|
8g-	-schen-
4.b-	-le-
=66	=66
4e-}	-ben!}
8r	.
4r	.
8r	.
=67	=67
2.r	.
=68	=68
2.r	.
=69	=69
2.r	.
=70	=70
2.r	.
=71	=71
2.r	.
=72	=72
4r	.
8r	.
4r	.
{8b-	{So
=73	=73
*k[b-e-a-]	*
4b-	hof-
8g	-fet
4e-	treu-
8cc	-lich
=74	=74
4b-	und
8g	be-
4e-}	-harrt}
{8b-	{das
=75	=75
4ee-	Herz
8g	bis
8cc	hin
8b-	|
8g	zum
=76	=76
4f	Gra-
16a-	|
16g	|
4f}	-be,}
8r	.
=77	=77
2.r	.
=78	=78
4r	.
8r	.
4r	.
{8f	{mit
=79	=79
4f	Lieb'
16g	um-
16an	|
4b-	-fasst's
8dd-	die
=80	=80
4cc	Ge-
8a-	-gen-
4f}	-wart}
{8a-	{und
=81	=81
[4.a-	du2nkt
4a-]	|
8a-	sich
=82	=82
[4.b-	reich
8b-]	|
8cc-	|
8f	an
=83	=83
a-q	Ha-
4g-	|
8g-}	-be.}
4r	.
8r	.
=84	=84
2.r	.
=85	=85
4r	.
8r	.
4r	.
{8b-	{Die
=86	=86
4b-	Ha-
8b-	-be,
8dd-	die
8cc	|
8b-	es
=87	=87
4an	selbst
8cc	sich
4cc}	schafft,}
{16f	{mag
16g	|
=88	=88
4a-	ihm
8cc	kein
8b-	Schick-
8ee-	|
16cc	-sal
16a-	|
=89	=89
4.g	rau-
4f}	-ben;}
8r	.
=90	=90
2.r	.
=91	=91
4r	.
8r	.
4r	.
{8b-	{es
=92	=92
4cc	lebt
8f	und
8.g	webt
16b-	|
16ee-	in
16dd	|
=93	=93
4cc	Wa2rm'
8f	und
4g}	|
8r	Kraft,}
=94	=94
4r	.
{8b-	{durch
4cc-	Zu-
16ccn	-ver-
16dd	|
=95	=95
4cc	-sicht
16b-	und
16a-	|
4g	Grau-
16b-	|
16a-	|
=96	=96
4g}	-ben.}
8r	.
4r	.
{8b-	{durch
=97	=97
4.b-	Zu-
4cc-	|
16ccn	-ver-
16dd	|
=98	=98
4.cc	-sicht
8cc	und
8ff	|
8ee-	|
=99	=99
8ee-	Glau-
8dd	|
8cc	|
4.dd	|
=100	=100
4ee-}	-ben.}
8r	.
4r	.
8r	.
=101	=101
2.r	.
=102	=102
2.r	.
=103	=103
2.r	.
=104	=104
2.r	.
=105	=105
2.r	.
=106	=106
4r	.
8r	.
4r	.
{8b-	{Und
=107	=107
4b-	wa2r
8g-	in
4e-	Nacht
8cc-	und
=108	=108
4b-	Ne-
8g-	-beld
4e-}	ampf}
{8b-	{auch
=109	=109
4ee-	al-
8g-	-les
8cc-	rings
8b-	|
8g-	er-
=110	=110
4f	-stor-
16a-	|
16g-	|
4f}	-ben,}
8r	.
=111	=111
2.r	.
=112	=112
4r	.
8r	.
4r	.
{8f	{dies
=113	=113
4f	Herz
16g	hat
16an	|
4b-	la2ngst
8dd-	fu2r
=114	=114
4cc	je-
8a-	-den
4f}	Kampf}
{8a-	{sich
=115	=115
[4.a-	ei-
4a-]	|
8a-	-nen
=116	=116
[4.b-	Schild
8b-]	|
8cc-	|
8f	er-
=117	=117
a-q	-wor-
4g-	|
8g-}	-ben.}
4r	.
8r	.
=118	=118
2.r	.
=119	=119
4r	.
8r	.
4r	.
{8b-	{Mit
=120	=120
4b-	ho-
8b-	-hem
8dd-	Trotz
8cc	|
8b-	im
=121	=121
4an	Un-
8cc	-ge-
4cc}	-mach}
{16f	{tra2gt
16g	|
=122	=122
4a-	es,
8cc	was
8b-	ihm
8ee-	|
16cc	be-
16a-	|
=123	=123
4.g	-schie-
4f}	-den.}
8r	.
=124	=124
2.r	.
=125	=125
4r	.
8r	.
4r	.
{8b-	{So
=126	=126
4cc	schlummr'
8f	ich
8.g	ein,
16b-	|
16ee-	so
16dd	|
=127	=127
4cc	werd'
8f	ich
4g}	wach,}
8r	.
=128	=128
4r	.
8r	.
4r	.
{8bn	{in
=129	=129
4dd	Lust
8cc}	nicht,}
4r	.
8r	.
=130	=130
{4cc	{doch
16b-	in
16a-	|
4g	Frie-
16b-	|
16a-	|
=131	=131
4g}	-den,}
8r	.
4r	.
{8bn	{in
=132	=132
4.dd	Lust
4cc}	nicht,}
8r	.
=133	=133
4r	.
8r	.
{8cc	{doch
8ff	|
8ee-	in
=134	=134
8ee-	Frie-
8dd	|
8cc	|
4.dd	|
=135	=135
4.ee-}	-den.}
4r	.
8r	.
==	==
*-	*-
